X:1
T:Marchfield, LM
T:Marchfield, LM
T:Edward Augustus Collier, 1912
T:Public Domain Courtesy of the Cyber Hymnal™
C:Edward Augustus Collier, 1912
Z:Public Domain
Z:Courtesy of the Cyber Hymnal™
%%score ( 1 2 ) ( 3 4 )
L:1/8
M:3/4
K:Ab
V:1 treble 
V:2 treble 
V:3 bass 
V:4 bass 
V:1
 E2 | [Ec]4 [DB]2 | [CA]4 [=EG]2 | (F2 G2) [DA]2 | [CE]4 E2 | [EG]4 [EA]2 | [EB]4 [Ec]2 | %7
 (e2 d2) [Ac]2 | [GB]4 [Ed]2 | [Ec]4 [DB]2 | [CA]4 [=EG]2 | [DF]4 [DF]2 | [CE]4 [DE]2 | %13
 ([CE]2 [EA]2) [EB]2 | ([Ec]2 [_Ge]2) [Fd]2 | c4 [_DB]2 | [CA]4 |] %17
V:2
 E2 | x6 | x6 | D4 x2 | x4 E2 | x6 | x6 | G4 x2 | x6 | x6 | x6 | x6 | x6 | x6 | x6 | (E2 =D2) x2 | %16
 x4 |] %17
V:3
 E,2 | A,2 E,2 (F,G,) | [A,,A,]4 [C,B,]2 | [D,A,]4 [F,A,]2 | A,4 [A,C]2 | [E,D]4 [E,C]2 | %6
 [E,G,]4 [E,A,]2 | [E,B,]4 (A,C) | [E,D]4 [G,B,]2 | [A,C]4 [E,G,]2 | [F,A,]4 [C,B,]2 | %11
 [D,A,]4 [D,A,]2 | [A,,A,]4 [G,,B,]2 | A,4 [E,G,]2 | A,4 [D,A,]2 | (A,2 F,2) [E,G,]2 | [A,,A,]4 |] %17
V:4
 E,2 | A,,4 A,,2 | x6 | x6 | A,4 x2 | x6 | x6 | x4 E,2 | x6 | x6 | x6 | x6 | x6 | (A,,2 C,2) x2 | %14
 (A,2 C,2) x2 | E,4 x2 | x4 |] %17

